src/actions/symbolic/calendar-symbolic.svg

<svg width="16px" height="16px" version="1.1" viewBox="0 0 16 16" xmlns="http://www.w3.org/2000/svg">
 <path d="m9 7h2v2h-2z" fill="#363636"/>
 <path d="m5 0v1h1v-1zm1 1v1h-1v-1h-2c-1.108 0-2 0.892-2 2v10c0 1.108 0.892 2 2 2h10c1.108 0 2-0.892 2-2v-10c0-1.108-0.892-2-2-2h-2v1h-1v-1zm4 0h1v-1h-1zm-7 4h10c0.554 0 1 0.446 1 1v7c0 0.554-0.446 1-1 1h-10c-0.554 0-1-0.446-1-1v-7c0-0.554 0.446-1 1-1z" fill="#363636" fill-rule="evenodd" stop-color="#000000" stroke-linecap="round" stroke-linejoin="round" style="paint-order:stroke fill markers"/>
</svg>

<svg xmlns="http://www.w3.org/2000/svg" width="16" height="16">
    <path fill="#050505" fill-opacity=".7" d="M9 7h2v2H9z"/>
    <path fill="#050505" fill-opacity=".7" fill-rule="evenodd" d="M5 0v1h1V0zm1 1v1H5V1H3c-1.108 0-2 .892-2 2v10c0 1.108.892 2 2 2h10c1.108 0 2-.892 2-2V3c0-1.108-.892-2-2-2h-2v1h-1V1zm4 0h1V0h-1zM3 5h10c.554 0 1 .446 1 1v7c0 .554-.446 1-1 1H3c-.554 0-1-.446-1-1V6c0-.554.446-1 1-1z" style="paint-order:stroke fill markers"/>
</svg>
